public/images/logo/logo-open-terms-archive-black.svg

<svg fill="#010613" viewBox="0 0 406 52" xmlns="http://www.w3.org/2000/svg"><path d="m92.1293 25.5455c0-6.1861-3.8409-9.7131-8.8544-9.7131-5.0412 0-8.8544 3.527-8.8544 9.7131 0 6.1583 3.8132 9.713 8.8544 9.713 5.0135 0 8.8544-3.527 8.8544-9.713zm-4.0533 0c0 4.0071-1.902 6.1768-4.8011 6.1768-2.9084 0-4.8012-2.1697-4.8012-6.1768s1.8928-6.1769 4.8012-6.1769c2.8991 0 4.8011 2.1698 4.8011 6.1769zm9.2247 9.4545h3.9983v-6.1307h3.36c4.349 0 6.879-2.5944 6.879-6.3707 0-3.7578-2.484-6.4077-6.777-6.4077h-7.4603zm3.9983-9.3345v-6.3061h2.696c2.308 0 3.425 1.2557 3.425 3.1392 0 1.8743-1.117 3.1669-3.407 3.1669zm15.046 9.3345h12.778v-3.2962h-8.78v-4.5149h8.088v-3.2961h-8.088v-4.5057h8.743v-3.2962h-12.741zm33.946-18.9091h-3.98v11.8921h-.166l-8.162-11.8921h-3.508v18.9091h3.998v-11.9013h.138l8.227 11.9013h3.453zm13.02 3.2962h5.789v15.6129h3.952v-15.6129h5.789v-3.2962h-15.53zm20.298 15.6129h12.778v-3.2962h-8.781v-4.5149h8.088v-3.2961h-8.088v-4.5057h8.744v-3.2962h-12.741zm18.129 0h3.998v-6.7031h2.918l3.582 6.7031h4.414l-4.017-7.3494c2.152-.9233 3.343-2.7976 3.343-5.3828 0-3.7579-2.484-6.1769-6.777-6.1769h-7.461zm3.998-9.9162v-5.7244h2.696c2.309 0 3.426 1.0248 3.426 2.9084 0 1.8742-1.117 2.816-3.407 2.816zm15.275-8.9929v18.9091h3.878v-12.3537h.157l4.893 12.2614h2.641l4.893-12.2152h.157v12.3075h3.878v-18.9091h-4.93l-5.208 12.7046h-.221l-5.208-12.7046zm36.259 5.4382h3.831c-.055-3.37-2.825-5.6967-7.035-5.6967-4.146 0-7.183 2.2898-7.165 5.7244-.009 2.7884 1.958 4.3857 5.152 5.152l2.059.5171c2.059.4985 3.204 1.0894 3.213 2.3636-.009 1.3849-1.32 2.3267-3.351 2.3267-2.078 0-3.574-.9602-3.703-2.853h-3.868c.101 4.0902 3.028 6.2046 7.617 6.2046 4.616 0 7.331-2.2067 7.34-5.6691-.009-3.1484-2.382-4.8196-5.669-5.5582l-1.699-.4063c-1.643-.3785-3.019-.9879-2.991-2.3451 0-1.2188 1.08-2.1144 3.037-2.1144 1.911 0 3.084.8679 3.232 2.3544zm20.476 13.4709 1.403-4.3118h6.823l1.404 4.3118h4.284l-6.519-18.9091h-5.151l-6.528 18.9091zm2.419-7.4325 2.327-7.1556h.147l2.327 7.1556zm15.981 7.4325h3.998v-6.7031h2.917l3.583 6.7031h4.413l-4.016-7.3494c2.151-.9233 3.342-2.7976 3.342-5.3828 0-3.7579-2.484-6.1769-6.777-6.1769h-7.46zm3.998-9.9162v-5.7244h2.696c2.308 0 3.425 1.0248 3.425 2.9084 0 1.8742-1.117 2.816-3.407 2.816zm31.958-2.3729c-.526-4.3671-3.831-6.8785-8.208-6.8785-4.995 0-8.808 3.527-8.808 9.7131 0 6.1676 3.749 9.713 8.808 9.713 4.848 0 7.774-3.2223 8.208-6.7031l-4.044-.0185c-.378 2.022-1.966 3.1854-4.099 3.1854-2.872 0-4.82-2.1328-4.82-6.1768 0-3.9333 1.921-6.1769 4.848-6.1769 2.188 0 3.767 1.2649 4.071 3.3423zm5.077 12.2891h3.998v-7.8111h8.116v7.8111h3.988v-18.9091h-3.988v7.8019h-8.116v-7.8019h-3.998zm25.606-18.9091h-3.997v18.9091h3.997zm8.916 0h-4.441l6.528 18.9091h5.152l6.518-18.9091h-4.432l-4.579 14.3665h-.176zm18.243 18.9091h12.778v-3.2962h-8.78v-4.5149h8.088v-3.2961h-8.088v-4.5057h8.743v-3.2962h-12.741z"/><path d="m5 31-4.330127-7.5h8.660257z"/><path d="m4.75899 25.1462c-.96149-.0339-1.71951-.842-1.62137-1.799.5269-5.138 2.57454-10.0174 5.90017-14.0035 3.69861-4.43316 8.76761-7.50916 14.40761-8.743017 5.6401-1.233856 11.5304-.5553717 16.7422 1.928477 5.2119 2.48385 9.4487 6.63175 12.0426 11.78974 2.5939 5.1579 3.3972 11.0325 2.2832 16.6975-1.1139 5.665-4.0817 10.7981-8.4353 14.5899-4.3537 3.7918-9.8457 6.0267-15.6099 6.3523-5.183.2928-10.321-.9731-14.7597-3.6139-.8268-.4919-1.0235-1.5823-.4773-2.3743.5461-.7921 1.628-.9849 2.4598-.5016 3.7976 2.2064 8.1704 3.2605 12.5807 3.0114 4.9918-.282 9.7479-2.2174 13.5182-5.5011 3.7703-3.2838 6.3403-7.729 7.305-12.6349s.269-9.9933-1.9773-14.4601c-2.2463-4.4667-5.9154-8.05884-10.4288-10.20985-4.5135-2.15101-9.6145-2.73858-14.4988-1.67006s-9.274 3.73234-12.477 7.57141c-2.82988 3.3919-4.5912 7.5307-5.08454 11.895-.10806.956-.90799 1.7094-1.86947 1.6756z"/><path d="m23.002 17.6315c0-.9302.754-1.6842 1.6842-1.6842h12.6315c.9302 0 1.6843.754 1.6843 1.6842 0 .9301-.7541 1.6842-1.6843 1.6842h-12.6315c-.9302 0-1.6842-.7541-1.6842-1.6842z"/><path d="m23.002 23.5262c0-.9302.754-1.6842 1.6842-1.6842h9.9255c.9302 0 1.6842.754 1.6842 1.6842s-.754 1.6842-1.6842 1.6842h-9.9255c-.9302 0-1.6842-.754-1.6842-1.6842z"/><path d="m23.002 29.421c0-.9302.754-1.6843 1.6842-1.6843h11.6315c.9302 0 1.6843.7541 1.6843 1.6843 0 .9301-.7541 1.6842-1.6843 1.6842h-11.6315c-.9302 0-1.6842-.7541-1.6842-1.6842z"/><path d="m23.002 35.3157c0-.9302.754-1.6842 1.6842-1.6842h3.6514c.9302 0 1.6843.754 1.6843 1.6842s-.7541 1.6842-1.6843 1.6842h-3.6514c-.9302 0-1.6842-.754-1.6842-1.6842z"/></svg>

<svg viewBox="0 0 406 52" fill="#010613" xmlns="http://www.w3.org/2000/svg">
	<path d="M92.1293 25.5455C92.1293 19.3594 88.2884 15.8324 83.2749 15.8324C78.2337 15.8324 74.4205 19.3594 74.4205 25.5455C74.4205 31.7038 78.2337 35.2585 83.2749 35.2585C88.2884 35.2585 92.1293 31.7315 92.1293 25.5455ZM88.076 25.5455C88.076 29.5526 86.174 31.7223 83.2749 31.7223C80.3665 31.7223 78.4737 29.5526 78.4737 25.5455C78.4737 21.5384 80.3665 19.3686 83.2749 19.3686C86.174 19.3686 88.076 21.5384 88.076 25.5455ZM97.3007 35H101.299V28.8693H104.659C109.008 28.8693 111.538 26.2749 111.538 22.4986C111.538 18.7408 109.054 16.0909 104.761 16.0909H97.3007V35ZM101.299 25.6655V19.3594H103.995C106.303 19.3594 107.42 20.6151 107.42 22.4986C107.42 24.3729 106.303 25.6655 104.013 25.6655H101.299ZM116.345 35H129.123V31.7038H120.343V27.1889H128.431V23.8928H120.343V19.3871H129.086V16.0909H116.345V35ZM150.291 16.0909H146.311V27.983H146.145L137.983 16.0909H134.475V35H138.473V23.0987H138.611L146.838 35H150.291V16.0909ZM163.311 19.3871H169.1V35H173.052V19.3871H178.841V16.0909H163.311V19.3871ZM183.609 35H196.387V31.7038H187.606V27.1889H195.694V23.8928H187.606V19.3871H196.35V16.0909H183.609V35ZM201.738 35H205.736V28.2969H208.654L212.236 35H216.65L212.633 27.6506C214.785 26.7273 215.976 24.853 215.976 22.2678C215.976 18.5099 213.492 16.0909 209.199 16.0909H201.738V35ZM205.736 25.0838V19.3594H208.432C210.741 19.3594 211.858 20.3842 211.858 22.2678C211.858 24.142 210.741 25.0838 208.451 25.0838H205.736ZM221.011 16.0909V35H224.889V22.6463H225.046L229.939 34.9077H232.58L237.473 22.6925H237.63V35H241.508V16.0909H236.578L231.37 28.7955H231.149L225.941 16.0909H221.011ZM257.27 21.5291H261.101C261.046 18.1591 258.276 15.8324 254.066 15.8324C249.92 15.8324 246.883 18.1222 246.901 21.5568C246.892 24.3452 248.859 25.9425 252.053 26.7088L254.112 27.2259C256.171 27.7244 257.316 28.3153 257.325 29.5895C257.316 30.9744 256.005 31.9162 253.974 31.9162C251.896 31.9162 250.4 30.956 250.271 29.0632H246.403C246.504 33.1534 249.431 35.2678 254.02 35.2678C258.636 35.2678 261.351 33.0611 261.36 29.5987C261.351 26.4503 258.978 24.7791 255.691 24.0405L253.992 23.6342C252.349 23.2557 250.973 22.6463 251.001 21.2891C251.001 20.0703 252.081 19.1747 254.038 19.1747C255.949 19.1747 257.122 20.0426 257.27 21.5291ZM277.746 35L279.149 30.6882H285.972L287.376 35H291.66L285.141 16.0909H279.99L273.462 35H277.746ZM280.165 27.5675L282.492 20.4119H282.639L284.966 27.5675H280.165ZM296.146 35H300.144V28.2969H303.061L306.644 35H311.057L307.041 27.6506C309.192 26.7273 310.383 24.853 310.383 22.2678C310.383 18.5099 307.899 16.0909 303.606 16.0909H296.146V35ZM300.144 25.0838V19.3594H302.84C305.148 19.3594 306.265 20.3842 306.265 22.2678C306.265 24.142 305.148 25.0838 302.858 25.0838H300.144ZM332.102 22.7109C331.576 18.3438 328.271 15.8324 323.894 15.8324C318.899 15.8324 315.086 19.3594 315.086 25.5455C315.086 31.7131 318.835 35.2585 323.894 35.2585C328.742 35.2585 331.668 32.0362 332.102 28.5554L328.058 28.5369C327.68 30.5589 326.092 31.7223 323.959 31.7223C321.087 31.7223 319.139 29.5895 319.139 25.5455C319.139 21.6122 321.06 19.3686 323.987 19.3686C326.175 19.3686 327.754 20.6335 328.058 22.7109H332.102ZM337.179 35H341.177V27.1889H349.293V35H353.281V16.0909H349.293V23.8928H341.177V16.0909H337.179V35ZM362.785 16.0909H358.788V35H362.785V16.0909ZM371.701 16.0909H367.26L373.788 35H378.94L385.458 16.0909H381.026L376.447 30.4574H376.271L371.701 16.0909ZM389.944 35H402.722V31.7038H393.942V27.1889H402.03V23.8928H393.942V19.3871H402.685V16.0909H389.944V35Z" />
	<path d="M5 31L0.669873 23.5L9.33013 23.5L5 31Z" />
	<path d="M4.75899 25.1462C3.7975 25.1123 3.03948 24.3042 3.13762 23.3472C3.66452 18.2092 5.71216 13.3298 9.03779 9.3437C12.7364 4.91054 17.8054 1.83454 23.4454 0.600683C29.0855 -0.633173 34.9758 0.0453113 40.1876 2.52916C45.3995 5.01301 49.6363 9.16091 52.2302 14.3189C54.8241 19.4768 55.6274 25.3514 54.5134 31.0164C53.3995 36.6814 50.4317 41.8145 46.0781 45.6063C41.7244 49.3981 36.2324 51.633 30.4682 51.9586C25.2852 52.2514 20.1472 50.9855 15.7085 48.3447C14.8817 47.8528 14.685 46.7624 15.2312 45.9704V45.9704C15.7773 45.1783 16.8592 44.9855 17.691 45.4688C21.4886 47.6752 25.8614 48.7293 30.2717 48.4802C35.2635 48.1982 40.0196 46.2628 43.7899 42.9791C47.5602 39.6953 50.1302 35.2501 51.0949 30.3442C52.0596 25.4383 51.3639 20.3509 49.1176 15.8841C46.8713 11.4174 43.2022 7.82526 38.6888 5.67425C34.1753 3.52324 29.0743 2.93567 24.19 4.00419C19.3057 5.07271 14.916 7.73653 11.713 11.5756C8.88312 14.9675 7.1218 19.1063 6.62846 23.4706C6.5204 24.4266 5.72047 25.18 4.75899 25.1462V25.1462Z" />
	<path d="M23.002 17.6315C23.002 16.7013 23.756 15.9473 24.6862 15.9473H37.3177C38.2479 15.9473 39.002 16.7013 39.002 17.6315C39.002 18.5616 38.2479 19.3157 37.3177 19.3157H24.6862C23.756 19.3157 23.002 18.5616 23.002 17.6315Z" />
	<path d="M23.002 23.5262C23.002 22.596 23.756 21.842 24.6862 21.842H34.6117C35.5419 21.842 36.2959 22.596 36.2959 23.5262C36.2959 24.4564 35.5419 25.2104 34.6117 25.2104H24.6862C23.756 25.2104 23.002 24.4564 23.002 23.5262Z" />
	<path d="M23.002 29.421C23.002 28.4908 23.756 27.7367 24.6862 27.7367H36.3177C37.2479 27.7367 38.002 28.4908 38.002 29.421C38.002 30.3511 37.2479 31.1052 36.3177 31.1052H24.6862C23.756 31.1052 23.002 30.3511 23.002 29.421Z" />
	<path d="M23.002 35.3157C23.002 34.3855 23.756 33.6315 24.6862 33.6315H28.3376C29.2678 33.6315 30.0219 34.3855 30.0219 35.3157C30.0219 36.2459 29.2678 36.9999 28.3376 36.9999H24.6862C23.756 36.9999 23.002 36.2459 23.002 35.3157Z" />
</svg>
